assets/sonr-icons/btc.svg

<svg xmlns="http://www.w3.org/2000/svg" width="24" height="24" fill="none" viewBox="0 0 24 24"><path fill="#000" d="M20.075 9.24304C20.411 7.00104 18.703 5.79604 16.369 4.99204L17.126 1.95504L15.278 1.49504L14.54 4.45104C14.055 4.32904 13.556 4.21504 13.059 4.10204L13.802 1.12604L11.954 0.665039L11.197 3.70104C10.795 3.60904 10.399 3.51904 10.017 3.42304L10.019 3.41304L7.46998 2.77704L6.97798 4.75104C6.97798 4.75104 8.34998 5.06504 8.32098 5.08504C9.06898 5.27304 9.20398 5.76804 9.18198 6.16004L8.31998 9.62004C8.37098 9.63304 8.43798 9.65204 8.51298 9.68104L8.31698 9.63304L7.10898 14.479C7.01698 14.705 6.78498 15.047 6.26098 14.918C6.28098 14.945 4.91798 14.583 4.91798 14.583L4.00098 16.698L6.40698 17.298C6.85398 17.411 7.29298 17.528 7.72298 17.638L6.95898 20.709L8.80598 21.169L9.56298 18.132C10.068 18.268 10.557 18.394 11.037 18.514L10.282 21.538L12.13 21.998L12.894 18.933C16.046 19.53 18.416 19.289 19.415 16.438C20.219 14.143 19.375 12.818 17.717 11.955C18.925 11.677 19.834 10.883 20.077 9.24104V9.24304H20.075ZM15.851 15.166C15.281 17.462 11.416 16.221 10.162 15.909L11.178 11.84C12.431 12.154 16.449 12.772 15.851 15.166ZM16.424 9.21004C15.903 11.299 12.687 10.237 11.644 9.97604L12.563 6.28704C13.606 6.54704 16.968 7.03104 16.424 9.21004Z"/></svg>

<svg xmlns="http://www.w3.org/2000/svg" width="24" height="24" fill="none"><path fill="currentColor" d="M20.075 9.243c.336-2.242-1.372-3.447-3.706-4.251l.757-3.037-1.848-.46-.738 2.956a67 67 0 0 0-1.481-.349l.743-2.976-1.848-.461-.757 3.036c-.402-.092-.798-.182-1.18-.278l.002-.01-2.549-.636-.492 1.974s1.372.314 1.343.334c.748.188.883.683.861 1.075L8.32 9.62q.079.018.193.061l-.196-.048-1.208 4.846c-.092.226-.324.568-.848.439.02.027-1.343-.335-1.343-.335l-.917 2.115 2.406.6c.447.113.886.23 1.316.34l-.764 3.071 1.847.46.757-3.037q.756.203 1.474.382l-.755 3.024 1.848.46.764-3.065c3.152.597 5.522.356 6.521-2.495.804-2.295-.04-3.62-1.698-4.483 1.208-.278 2.117-1.072 2.36-2.714v.002zm-4.224 5.923c-.57 2.296-4.435 1.055-5.689.743l1.016-4.069c1.253.314 5.271.932 4.673 3.326m.573-5.956c-.521 2.089-3.737 1.027-4.78.766l.919-3.689c1.043.26 4.405.744 3.861 2.923"/></svg>
